X:6980
T:Henrik's Signature Reel
S:irtrad-l, H. Norbeck
R:Reel
C:Henrik Norbeck
Z:Thanks to Tim Riley for the idea
M:C|
K:Em
e2be cced|eebe cabe|egec ecBb|eeed eb~b2:|
|:bgea fdge|cfdB cf~f2|gfec ecBb|1 eeed eb~b2:|2 afge feed||
